dhis-2/dhis-support/dhis-support-system/src/main/resources/SVGs/rdt_result_mixed_positive.svg

<svg width="48" height="48" viewBox="0 0 48 48" fill="none" xmlns="http://www.w3.org/2000/svg">
<path d="M10.6499 17.8027V17.8047C10.2939 17.8047 10.0059 17.9217 9.78703 18.1577C9.56833 18.3927 9.45893 18.7227 9.45893 19.1477C9.45893 19.5497 9.56753 19.8667 9.78513 20.0997C10.0029 20.3307 10.2809 20.4467 10.6189 20.4467C10.8919 20.4467 11.1159 20.3787 11.2929 20.2437C11.4709 20.1077 11.5989 19.9017 11.6759 19.6227L11.1779 19.4647C11.1349 19.6517 11.0629 19.7877 10.9649 19.8747C10.8659 19.9617 10.7499 20.0057 10.6129 20.0057C10.4279 20.0057 10.2779 19.9377 10.1619 19.8007C10.0459 19.6637 9.98823 19.4317 9.98823 19.1087C9.98823 18.8047 10.0469 18.5847 10.1639 18.4487C10.2819 18.3137 10.4339 18.2457 10.6229 18.2457C10.7599 18.2457 10.8759 18.2847 10.9709 18.3587C11.0669 18.4357 11.1299 18.5417 11.1599 18.6737L11.6679 18.5507C11.6099 18.3457 11.5239 18.1887 11.4079 18.0797C11.2139 17.8947 10.9619 17.8027 10.6499 17.8027ZM26.5677 17.8047C26.4327 17.8047 26.3197 17.8277 26.2297 17.8767C26.1427 17.9247 26.0817 17.9877 26.0487 18.0637C26.0157 18.1407 25.9997 18.2567 25.9997 18.4117V18.5527H25.7287V18.9377H25.9997V20.4037H26.4877V18.9377H26.8517V18.5527H26.4877V18.4217C26.4877 18.3277 26.5027 18.2647 26.5327 18.2317C26.5637 18.2007 26.6147 18.1817 26.6857 18.1817C26.7567 18.1817 26.8327 18.1887 26.9097 18.2087L26.9767 17.8667C26.8427 17.8247 26.7067 17.8047 26.5677 17.8047ZM16.0038 17.8477V20.4017H16.5178V19.4387H16.8538C17.0858 19.4387 17.2638 19.4277 17.3868 19.4037C17.4768 19.3837 17.5658 19.3437 17.6518 19.2827C17.7398 19.2217 17.8118 19.1357 17.8688 19.0287C17.9258 18.9217 17.9528 18.7917 17.9528 18.6347C17.9528 18.4307 17.9048 18.2667 17.8068 18.1387C17.7078 18.0097 17.5848 17.9247 17.4388 17.8867C17.3448 17.8627 17.1408 17.8477 16.8278 17.8477H16.0038ZM23.5718 17.8477V20.4017H24.0857V19.4387H24.4197C24.6527 19.4387 24.8297 19.4277 24.9527 19.4037C25.0427 19.3837 25.1317 19.3437 25.2187 19.2827C25.3067 19.2217 25.3787 19.1357 25.4357 19.0287C25.4917 18.9217 25.5207 18.7917 25.5207 18.6347C25.5207 18.4307 25.4707 18.2667 25.3727 18.1387C25.2747 18.0097 25.1537 17.9247 25.0077 17.8867C24.9127 17.8627 24.7087 17.8477 24.3957 17.8477H23.5718ZM16.5178 18.2787H16.7678C16.9528 18.2787 17.0748 18.2887 17.1368 18.3007C17.2198 18.3167 17.2888 18.3537 17.3438 18.4137C17.3978 18.4737 17.4238 18.5487 17.4238 18.6427C17.4238 18.7177 17.4048 18.7847 17.3648 18.8417C17.3268 18.8987 17.2728 18.9417 17.2048 18.9687C17.1368 18.9967 17.0008 19.0077 16.7988 19.0077H16.5178V18.2787ZM24.0857 18.2787H24.3337C24.5187 18.2787 24.6417 18.2887 24.7027 18.3007C24.7857 18.3167 24.8557 18.3537 24.9097 18.4137C24.9647 18.4737 24.9917 18.5487 24.9917 18.6427C24.9917 18.7177 24.9707 18.7847 24.9317 18.8417C24.8927 18.8987 24.8417 18.9417 24.7727 18.9687C24.7047 18.9967 24.5697 19.0077 24.3667 19.0077H24.0857V18.2787ZM18.1388 18.5527L18.8828 20.4017H19.3218L20.0548 18.5527H19.5528L19.2008 19.4957C19.1828 19.5477 19.1668 19.6007 19.1498 19.6537C19.1428 19.6777 19.1258 19.7327 19.0998 19.8117L18.9978 19.4957L18.6518 18.5527H18.1388ZM8.24215 21.6407C5.89178 21.6407 4 23.5317 4 25.8826V25.9526C4 28.3036 5.89178 30.1966 8.24215 30.1966H39.7578C42.1077 30.1966 43.9997 28.3036 43.9997 25.9526V25.8826C43.9997 23.5317 42.1077 21.6407 39.7578 21.6407H8.24215ZM39.7808 23.7537C40.9697 23.7537 41.9337 24.7176 41.9337 25.9056C41.9337 27.0946 40.9697 28.0586 39.7808 28.0586C38.5928 28.0586 37.6288 27.0946 37.6288 25.9056C37.6288 24.7176 38.5928 23.7537 39.7808 23.7537ZM8.54714 24.0247H10.1602V27.6166H8.54714C7.55246 27.6166 6.75027 26.8146 6.75027 25.8196C6.75027 24.8256 7.55246 24.0247 8.54714 24.0247ZM10.6742 24.0247H17.9821V27.6166H10.6742V24.0247ZM18.4961 24.0247H25.592V27.6166H18.4961V24.0247ZM26.107 24.0247H28.562C29.557 24.0247 30.359 24.8256 30.359 25.8196C30.359 26.8146 29.557 27.6166 28.562 27.6166H26.107V24.0247ZM34.0619 24.5426C34.8199 24.5416 35.4339 25.1566 35.4339 25.9136C35.4329 26.6706 34.8189 27.2836 34.0619 27.2826C33.3069 27.2826 32.6939 26.6696 32.6929 25.9136C32.6929 25.1566 33.3059 24.5426 34.0619 24.5426Z" fill="#333333"/>
</svg>

<?xml version="1.0" encoding="UTF-8" standalone="no"?>
<!-- Created with Inkscape (http://www.inkscape.org/) -->
<svg id="svg8" xmlns:rdf="http://www.w3.org/1999/02/22-rdf-syntax-ns#" xmlns="http://www.w3.org/2000/svg" xmlns:osb="http://www.openswatchbook.org/uri/2009/osb" height="48" width="48" version="1.1" enable-background="new" xmlns:cc="http://creativecommons.org/ns#" viewBox="0 0 12.7 12.7" xmlns:dc="http://purl.org/dc/elements/1.1/">
 <title id="title4753">UIO-icon</title>
 <metadata id="metadata5">
  <rdf:RDF>
   <cc:Work rdf:about="">
    <dc:format>image/svg+xml</dc:format>
    <dc:type rdf:resource="http://purl.org/dc/dcmitype/StillImage"/>
    <dc:title>UIO-icon</dc:title>
    <dc:creator>
     <cc:Agent>
      <dc:title>Joaquín Urbano</dc:title>
     </cc:Agent>
    </dc:creator>
    <dc:rights>
     <cc:Agent>
      <dc:title>GPL</dc:title>
     </cc:Agent>
    </dc:rights>
   </cc:Work>
  </rdf:RDF>
 </metadata>
 <g id="layer1" transform="translate(0,-284.3)" fill="#333">
  <path id="text9299" d="m10.65 17.803v0.002c-0.356 0-0.644 0.117-0.8629 0.353-0.2187 0.235-0.3281 0.565-0.3281 0.99 0 0.402 0.1086 0.719 0.3262 0.952 0.2178 0.231 0.4958 0.347 0.8338 0.347 0.273 0 0.497-0.068 0.674-0.203 0.178-0.136 0.306-0.342 0.383-0.621l-0.498-0.158c-0.043 0.187-0.115 0.323-0.213 0.41-0.099 0.087-0.215 0.131-0.352 0.131-0.185 0-0.335-0.068-0.451-0.205s-0.1737-0.369-0.1737-0.692c0-0.304 0.0587-0.524 0.1757-0.66 0.118-0.135 0.27-0.203 0.459-0.203 0.137 0 0.253 0.039 0.348 0.113 0.096 0.077 0.159 0.183 0.189 0.315l0.508-0.123c-0.058-0.205-0.144-0.362-0.26-0.471-0.194-0.185-0.446-0.277-0.758-0.277zm15.918 0.002c-0.135 0-0.248 0.023-0.338 0.072-0.087 0.048-0.148 0.111-0.181 0.187-0.033 0.077-0.049 0.193-0.049 0.348v0.141h-0.271v0.385h0.271v1.466h0.488v-1.466h0.364v-0.385h-0.364v-0.131c0-0.094 0.015-0.157 0.045-0.19 0.031-0.031 0.082-0.05 0.153-0.05s0.147 0.007 0.224 0.027l0.067-0.342c-0.134-0.042-0.27-0.062-0.409-0.062zm-10.564 0.043v2.554h0.514v-0.963h0.336c0.232 0 0.41-0.011 0.533-0.035 0.09-0.02 0.179-0.06 0.265-0.121 0.088-0.061 0.16-0.147 0.217-0.254s0.084-0.237 0.084-0.394c0-0.204-0.048-0.368-0.146-0.496-0.099-0.129-0.222-0.214-0.368-0.252-0.094-0.024-0.298-0.039-0.611-0.039h-0.824zm7.568 0v2.554h0.514v-0.963h0.334c0.233 0 0.41-0.011 0.533-0.035 0.09-0.02 0.179-0.06 0.266-0.121 0.088-0.061 0.16-0.147 0.217-0.254 0.056-0.107 0.085-0.237 0.085-0.394 0-0.204-0.05-0.368-0.148-0.496-0.098-0.129-0.219-0.214-0.365-0.252-0.095-0.024-0.299-0.039-0.612-0.039h-0.824zm-7.054 0.431h0.25c0.185 0 0.307 0.01 0.369 0.022 0.083 0.016 0.152 0.053 0.207 0.113 0.054 0.06 0.08 0.135 0.08 0.229 0 0.075-0.019 0.142-0.059 0.199-0.038 0.057-0.092 0.1-0.16 0.127-0.068 0.028-0.204 0.039-0.406 0.039h-0.281v-0.729zm7.568 0h0.248c0.185 0 0.308 0.01 0.369 0.022 0.083 0.016 0.153 0.053 0.207 0.113 0.055 0.06 0.082 0.135 0.082 0.229 0 0.075-0.021 0.142-0.06 0.199s-0.09 0.1-0.159 0.127c-0.068 0.028-0.203 0.039-0.406 0.039h-0.281v-0.729zm-5.947 0.274l0.744 1.849h0.439l0.733-1.849h-0.502l-0.352 0.943c-0.018 0.052-0.034 0.105-0.051 0.158-0.007 0.024-0.024 0.079-0.05 0.158l-0.102-0.316-0.346-0.943h-0.513zm-9.8968 3.088c-2.3504 0-4.2422 1.891-4.2422 4.242v0.07c0 2.351 1.8918 4.244 4.2422 4.244h31.516c2.35 0 4.242-1.893 4.242-4.244v-0.07c0-2.351-1.892-4.242-4.242-4.242h-31.516zm31.539 2.113c1.189 0 2.153 0.964 2.153 2.152 0 1.189-0.964 2.153-2.153 2.153-1.188 0-2.152-0.964-2.152-2.153 0-1.188 0.964-2.152 2.152-2.152zm-31.234 0.271h1.6131v3.592h-1.6131c-0.9947 0-1.7969-0.802-1.7969-1.797 0-0.994 0.8022-1.795 1.7969-1.795zm2.1271 0h7.308v3.592h-7.308v-3.592zm7.822 0h7.096v3.592h-7.096v-3.592zm7.611 0h2.455c0.995 0 1.797 0.801 1.797 1.795 0 0.995-0.802 1.797-1.797 1.797h-2.455v-3.592zm7.955 0.518c0.758-0.001 1.372 0.614 1.372 1.371-0.001 0.757-0.615 1.37-1.372 1.369-0.755 0-1.368-0.613-1.369-1.369 0-0.757 0.613-1.371 1.369-1.371z" transform="matrix(.26458 0 0 .26458 0 284.3)"/>
 </g>
</svg>
